packages/foundations/assets/icons/functional/images/navigation/more_vertical.svg

<svg xmlns="http://www.w3.org/2000/svg" width="32" height="32" fill="none"><path fill="#1A1C1F" fill-rule="evenodd" d="M15.324 6.122c-.882.315-1.445 1.263-1.296 2.182.262 1.61 2.225 2.25 3.376 1.1a1.99 1.99 0 0 0-.546-3.204c-.389-.19-1.115-.227-1.534-.078m0 8c-.882.315-1.445 1.263-1.296 2.182.262 1.61 2.225 2.25 3.376 1.1a1.99 1.99 0 0 0-.546-3.204c-.389-.19-1.115-.227-1.534-.078m0 8c-.882.315-1.445 1.263-1.296 2.182.262 1.61 2.225 2.25 3.376 1.1a1.99 1.99 0 0 0-.546-3.204c-.389-.19-1.115-.227-1.534-.078"/></svg>

<svg width="32" height="32" viewBox="0 0 32 32" fill="none" xmlns="http://www.w3.org/2000/svg"><path d="M15.324 6.122 C 14.442 6.437,13.879 7.385,14.028 8.304 C 14.290 9.914,16.253 10.554,17.404 9.404 C 18.376 8.431,18.099 6.808,16.858 6.200 C 16.469 6.010,15.743 5.973,15.324 6.122 M15.324 14.122 C 14.442 14.437,13.879 15.385,14.028 16.304 C 14.290 17.914,16.253 18.554,17.404 17.404 C 18.376 16.431,18.099 14.808,16.858 14.200 C 16.469 14.010,15.743 13.973,15.324 14.122 M15.324 22.122 C 14.442 22.437,13.879 23.385,14.028 24.304 C 14.290 25.914,16.253 26.554,17.404 25.404 C 18.376 24.431,18.099 22.808,16.858 22.200 C 16.469 22.010,15.743 21.973,15.324 22.122 " fill="#1A1C1F" stroke="none" fill-rule="evenodd"></path></svg>
